X:5987
T:Shenn ven
O:england
C:Tom Kermode, Bradda
M:2/4
L:1/8
Q:160
K:G
D|G2 G2|G2 G2|A>B A>G|G3 G|G4|D4|F>G A>F|G3 B|
d2 c B|c2 A2|G2 G2|B3 A|G2 B2|e2 dc BG A2|G3||


